Icons/Technical Icons/Unity_Technologies_logo.svg

<?xml version="1.0" encoding="UTF-8" standalone="no"?>
<svg
   xmlns:dc="http://purl.org/dc/elements/1.1/"
   xmlns:cc="http://creativecommons.org/ns#"
   xmlns:rdf="http://www.w3.org/1999/02/22-rdf-syntax-ns#"
   xmlns:svg="http://www.w3.org/2000/svg"
   xmlns="http://www.w3.org/2000/svg"
   width="275"
   height="100"
   viewBox="0 0 275 100"
   version="1.1"
   id="svg4">
  <metadata
     id="metadata10">
    <rdf:RDF>
      <cc:Work
         rdf:about="">
        <dc:format>image/svg+xml</dc:format>
        <dc:type
           rdf:resource="http://purl.org/dc/dcmitype/StillImage" />
        <dc:title></dc:title>
      </cc:Work>
    </rdf:RDF>
  </metadata>
  <defs
     id="defs8" />
  <path
     d="M 82.775,79.842 64.9,49.775 82.775,19.708 91.392,49.775 Z M 42.992,76.908 20.533,54.633 h 35.75 L 74.158,84.7 Z m 0,-54.358 31.075,-7.792 -17.875,30.067 H 20.442 Z M 88.642,0 48.033,10.542 41.983,20.9 29.792,20.808 0,49.775 29.792,78.742 41.983,78.65 48.033,89.008 88.642,99.642 99.55,60.133 93.408,49.867 99.55,39.6 Z m 92.216,29.242 c -5.408,0 -9.075,2.291 -11.825,6.508 h -0.183 v -5.408 h -9.533 v 39.783 h 9.716 v -22.55 c 0,-5.408 3.392,-9.167 8.067,-9.167 4.4,0 7.7,2.659 7.7,7.334 v 24.475 h 9.717 V 44.183 c 0.091,-8.708 -5.409,-14.941 -13.659,-14.941 z m -36.3,24.108 c 0,5.317 -3.025,8.983 -7.975,8.983 -4.491,0 -7.333,-2.566 -7.333,-7.241 v -24.75 h -9.717 v 26.583 c 0,8.708 4.95,14.392 13.842,14.392 5.592,0 8.708,-2.109 11.367,-5.775 h 0.275 v 4.675 h 9.35 V 30.342 H 144.65 V 53.35 Z m 55.184,-23.008 h 9.716 v 39.783 h -9.716 z m 0,-12.375 h 9.716 v 7.975 h -9.716 z m 64.808,12.375 -5.775,17.966 c -1.283,3.667 -2.292,8.709 -2.292,8.709 h -0.275 c 0,0 -1.283,-5.042 -2.566,-8.709 l -6.509,-17.966 h -10.45 l 10.725,28.325 c 2.292,6.05 3.025,8.616 3.025,10.816 0,3.3 -1.741,5.409 -5.866,5.409 h -3.759 v 8.341 h 6.234 c 8.066,0 10.908,-3.208 13.933,-12.008 L 275,30.433 H 264.55 Z M 227.608,58.483 V 37.4 h 6.234 v -6.967 h -6.234 V 17.967 h -9.716 v 12.375 h -5.5 v 6.966 h 5.5 v 23.375 c 0,7.517 5.683,9.534 10.816,9.534 4.217,0 5.317,-0.184 5.317,-0.184 v -7.7 h -2.475 c -2.292,0.092 -3.942,-0.916 -3.942,-3.85 z"
     id="path2"
     style="fill:#110b09;fill-rule:nonzero" />
</svg>

<?xml version="1.0" encoding="utf-8"?>
<!-- Generator: Adobe Illustrator 23.0.2, SVG Export Plug-In . SVG Version: 6.00 Build 0)  -->
<svg version="1.1"
	 id="svg4" xmlns:cc="http://creativecommons.org/ns#" xmlns:dc="http://purl.org/dc/elements/1.1/" xmlns:rdf="http://www.w3.org/1999/02/22-rdf-syntax-ns#" xmlns:svg="http://www.w3.org/2000/svg"
	 xmlns="http://www.w3.org/2000/svg" xmlns:xlink="http://www.w3.org/1999/xlink" x="0px" y="0px" viewBox="0 0 275 100"
	 style="enable-background:new 0 0 275 100;" xml:space="preserve">
<style type="text/css">
	.st0{fill:#110B09;}
</style>
<path id="path2" class="st0" d="M82.8,79.8L64.9,49.8l17.9-30.1l8.6,30.1L82.8,79.8z M43,76.9L20.5,54.6h35.8l17.9,30.1L43,76.9z
	 M43,22.5l31.1-7.8L56.2,44.8H20.4L43,22.5z M88.6,0L48,10.5l-6,10.4l-12.2-0.1L0,49.8l29.8,29L42,78.6L48,89l40.6,10.6l10.9-39.5
	l-6.1-10.3l6.1-10.3L88.6,0z"/>
</svg>
